X:1
T:Roll the Cotton Down
M:4/4
L:1/4
K:Ab
c/2-B/2| A3/2 E/2F/2-E/2C/2-E/2| A2 G A| B3/2 B/2c/2 c3/2| B3 E| F3/2 E/2 C E|\
 A- B c d| c3/2 A/2B/2 B3/2| A3||

